tools/download-figma-icons/icons/outlined-large/gateway.svg

<svg width="64" height="64" viewBox="0 0 64 64" fill="none" xmlns="http://www.w3.org/2000/svg">
<path fill-rule="evenodd" clip-rule="evenodd" d="M44.478 27.4021C48.039 24.0831 50 19.6791 50 15.0001C50 10.3211 48.039 5.91708 44.478 2.59808C43.871 2.03208 43.838 1.08308 44.402 0.478076C44.969 -0.128924 45.917 -0.161924 46.522 0.402076C50.699 4.29608 53 9.47908 53 15.0001C53 20.5211 50.699 25.7041 46.522 29.5981C46.233 29.8661 45.866 30.0001 45.5 30.0001C45.099 30.0001 44.698 29.8401 44.402 29.5221C43.838 28.9171 43.871 27.9681 44.478 27.4021ZM18.5 30.0001C18.901 30.0001 19.302 29.8401 19.598 29.5221C20.162 28.9171 20.129 27.9681 19.522 27.4021C15.961 24.0831 14 19.6791 14 15.0001C14 10.3211 15.961 5.91708 19.522 2.59808C20.129 2.03208 20.162 1.08308 19.598 0.478076C19.032 -0.128924 18.084 -0.159924 17.478 0.402076C13.301 4.29608 11 9.47908 11 15.0001C11 20.5211 13.301 25.7041 17.478 29.5981C17.767 29.8671 18.134 30.0001 18.5 30.0001ZM23.5088 24.6261C23.7938 24.8771 24.1478 25.0001 24.4988 25.0001C24.9148 25.0001 25.3288 24.8281 25.6258 24.4911C26.1728 23.8691 26.1128 22.9221 25.4908 22.3741C23.2398 20.3931 21.9998 17.7731 21.9998 15.0001C21.9998 12.2271 23.2398 9.60708 25.4908 7.62608C26.1128 7.07808 26.1728 6.13108 25.6258 5.50908C25.0778 4.88708 24.1308 4.82608 23.5088 5.37408C20.6018 7.93408 18.9998 11.3521 18.9998 15.0001C18.9998 18.6481 20.6018 22.0661 23.5088 24.6261ZM60.557 55.9997C60.801 55.9997 61 55.8007 61 55.5567V42.4437C61 42.1997 60.801 41.9997 60.557 41.9997H3.443C3.199 41.9997 3 42.1997 3 42.4437V55.5567C3 55.8007 3.199 55.9997 3.443 55.9997H6.5H14.5H38V53.4997C38 52.6717 38.672 51.9997 39.5 51.9997C40.328 51.9997 41 52.6717 41 53.4997V55.9997H44V53.4997C44 52.6717 44.672 51.9997 45.5 51.9997C46.328 51.9997 47 52.6717 47 53.4997V55.9997H49.5H50V53.4997C50 52.6717 50.672 51.9997 51.5 51.9997C52.328 51.9997 53 52.6717 53 53.4997V55.9997H57.5H60.557ZM56 60.9997H51V58.9997H56V60.9997ZM13 60.9997H8V58.9997H13V60.9997ZM34 14.9997C34 13.8977 33.103 12.9997 32 12.9997C30.897 12.9997 30 13.8977 30 14.9997C30 16.0827 30.867 16.9627 31.942 16.9937C31.952 16.9937 31.9615 16.9924 31.971 16.9912C31.9805 16.9899 31.99 16.9887 32 16.9887C32.01 16.9887 32.0195 16.9899 32.029 16.9912C32.0385 16.9924 32.048 16.9937 32.058 16.9937C33.133 16.9627 34 16.0827 34 14.9997ZM33.5 38.9997H60.557C62.455 38.9997 64 40.5447 64 42.4437V55.5567C64 57.4547 62.455 58.9997 60.557 58.9997H59V62.4997C59 63.3277 58.328 63.9997 57.5 63.9997H49.5C48.672 63.9997 48 63.3277 48 62.4997V58.9997H16V62.4997C16 63.3277 15.328 63.9997 14.5 63.9997H6.5C5.672 63.9997 5 63.3277 5 62.4997V58.9997H3.443C1.545 58.9997 0 57.4547 0 55.5567V42.4437C0 40.5447 1.545 38.9997 3.443 38.9997H30.5V19.7447C28.479 19.1037 27 17.2307 27 14.9997C27 12.2437 29.243 9.99968 32 9.99968C34.757 9.99968 37 12.2437 37 14.9997C37 17.2307 35.521 19.1037 33.5 19.7447V38.9997ZM10 49.0001C10 50.1031 10.897 51.0001 12 51.0001C13.103 51.0001 14 50.1031 14 49.0001C14 47.8971 13.103 47.0001 12 47.0001C10.897 47.0001 10 47.8971 10 49.0001ZM7 49.0001C7 46.2431 9.243 44.0001 12 44.0001C14.757 44.0001 17 46.2431 17 49.0001C17 51.7571 14.757 54.0001 12 54.0001C9.243 54.0001 7 51.7571 7 49.0001ZM38.3738 24.4911C37.8268 23.8691 37.8868 22.9221 38.5088 22.3741C40.7598 20.3931 41.9998 17.7731 41.9998 15.0001C41.9998 12.2271 40.7598 9.60708 38.5088 7.62608C37.8868 7.07808 37.8268 6.13108 38.3738 5.50908C38.9218 4.88708 39.8678 4.82608 40.4908 5.37408C43.3988 7.93408 44.9998 11.3521 44.9998 15.0001C44.9998 18.6481 43.3988 22.0661 40.4908 24.6261C40.2058 24.8771 39.8528 25.0001 39.5008 25.0001C39.0848 25.0001 38.6708 24.8281 38.3738 24.4911Z" fill="black"/>
</svg>

<svg width="64" height="64" viewBox="0 0 64 64" fill="none" xmlns="http://www.w3.org/2000/svg"><path fill-rule="evenodd" clip-rule="evenodd" d="M44.478 27.402C48.039 24.083 50 19.68 50 15c0-4.679-1.961-9.083-5.522-12.402A1.5 1.5 0 1 1 46.522.402C50.699 4.296 53 9.48 53 15c0 5.521-2.301 10.704-6.478 14.598a1.5 1.5 0 1 1-2.044-2.196ZM18.5 30a1.5 1.5 0 0 0 1.022-2.598C15.961 24.083 14 19.68 14 15c0-4.679 1.961-9.083 5.522-12.402A1.5 1.5 0 1 0 17.478.402C13.301 4.296 11 9.48 11 15c0 5.521 2.301 10.704 6.478 14.598.289.27.656.402 1.022.402Zm5.009-5.374a1.498 1.498 0 0 0 2.117-.135 1.5 1.5 0 0 0-.135-2.117C23.24 20.394 22 17.774 22 15c0-2.773 1.24-5.393 3.49-7.374a1.5 1.5 0 0 0-1.981-2.252c-2.907 2.56-4.51 5.978-4.51 9.626 0 3.648 1.603 7.066 4.51 9.626ZM60.557 56a.444.444 0 0 0 .443-.443V42.444a.445.445 0 0 0-.443-.444H3.443c-.244 0-.443.2-.443.444v13.113c0 .244.199.443.443.443H38v-2.5a1.5 1.5 0 0 1 3 0V56h3v-2.5a1.5 1.5 0 0 1 3 0V56h3v-2.5a1.5 1.5 0 0 1 3 0V56h7.557ZM56 61h-5v-2h5v2Zm-43 0H8v-2h5v2Zm21-46c0-1.102-.897-2-2-2s-2 .898-2 2c0 1.083.867 1.963 1.942 1.994.01 0 .02-.002.029-.003a.211.211 0 0 1 .058 0c.01.001.019.003.029.003A1.999 1.999 0 0 0 34 15Zm-.5 24h27.057A3.448 3.448 0 0 1 64 42.444v13.113A3.448 3.448 0 0 1 60.557 59H59v3.5a1.5 1.5 0 0 1-1.5 1.5h-8a1.5 1.5 0 0 1-1.5-1.5V59H16v3.5a1.5 1.5 0 0 1-1.5 1.5h-8A1.5 1.5 0 0 1 5 62.5V59H3.443A3.448 3.448 0 0 1 0 55.557V42.444A3.448 3.448 0 0 1 3.443 39H30.5V19.745C28.479 19.104 27 17.23 27 15c0-2.756 2.243-5 5-5s5 2.244 5 5c0 2.23-1.479 4.104-3.5 4.745V39ZM10 49c0 1.103.897 2 2 2s2-.897 2-2-.897-2-2-2-2 .897-2 2Zm-3 0c0-2.757 2.243-5 5-5s5 2.243 5 5-2.243 5-5 5-5-2.243-5-5Zm31.374-24.509a1.5 1.5 0 0 1 .135-2.117c2.25-1.98 3.49-4.6 3.49-7.374 0-2.773-1.24-5.393-3.49-7.374a1.5 1.5 0 0 1 1.982-2.252C43.399 7.934 45 11.352 45 15c0 3.648-1.601 7.066-4.51 9.626a1.498 1.498 0 0 1-2.117-.135Z" fill="currentColor"/></svg>
